resources/icons/20px/forward-ten.svg

<svg width="20" height="20" viewBox="0 0 20 20" fill="none" xmlns="http://www.w3.org/2000/svg">
<path d="M9.75359 20C8.53781 20 7.39903 19.769 6.33726 19.307C5.27548 18.845 4.35149 18.2209 3.56529 17.4347C2.77909 16.6485 2.15499 15.7245 1.69299 14.6627C1.231 13.601 1 12.4622 1 11.2464C1 10.0306 1.231 8.89186 1.69299 7.83008C2.15499 6.7683 2.77909 5.84432 3.56529 5.05811C4.35149 4.27191 5.27548 3.64781 6.33726 3.18582C7.39903 2.72382 8.53781 2.49283 9.75359 2.49283H9.89948L9.07275 1.6661C8.87823 1.47158 8.78502 1.24463 8.79312 0.985265C8.80123 0.725899 8.89444 0.498954 9.07275 0.30443C9.26728 0.109906 9.49827 0.00859148 9.76574 0.00048631C10.0332 -0.00761886 10.2642 0.0855906 10.4587 0.280115L12.9632 2.78461C13.1578 2.97914 13.255 3.20608 13.255 3.46545C13.255 3.72481 13.1578 3.95176 12.9632 4.14628L10.4587 6.65078C10.2642 6.8453 10.0332 6.93851 9.76574 6.93041C9.49827 6.9223 9.26728 6.82099 9.07275 6.62646C8.89444 6.43194 8.80123 6.205 8.79312 5.94563C8.78502 5.68627 8.87823 5.45932 9.07275 5.2648L9.89948 4.43807H9.75359C7.85698 4.43807 6.2481 5.09864 4.92696 6.41978C3.60581 7.74093 2.94524 9.3498 2.94524 11.2464C2.94524 13.143 3.60581 14.7519 4.92696 16.073C6.2481 17.3942 7.85698 18.0548 9.75359 18.0548C11.6502 18.0548 13.2591 17.3942 14.5802 16.073C15.9014 14.7519 16.5619 13.143 16.5619 11.2464C16.5619 10.9708 16.6551 10.7398 16.8416 10.5534C17.028 10.367 17.259 10.2738 17.5345 10.2738C17.8101 10.2738 18.0411 10.367 18.2275 10.5534C18.414 10.7398 18.5072 10.9708 18.5072 11.2464C18.5072 12.4622 18.2762 13.601 17.8142 14.6627C17.3522 15.7245 16.7281 16.6485 15.9419 17.4347C15.1557 18.2209 14.2317 18.845 13.1699 19.307C12.1081 19.769 10.9694 20 9.75359 20Z" fill="black"/>
<path fill-rule="evenodd" clip-rule="evenodd" d="M11.5 9.5V12.5H12.5V9.5H11.5ZM11 8C10.4477 8 10 8.44772 10 9V13C10 13.5523 10.4477 14 11 14H13C13.5523 14 14 13.5523 14 13V9C14 8.44772 13.5523 8 13 8H11Z" fill="black"/>
<path d="M9 9C9 8.44772 8.55228 8 8 8H6.75C6.33579 8 6 8.33579 6 8.75C6 9.16421 6.33579 9.5 6.75 9.5H7.5V13.25C7.5 13.6642 7.83579 14 8.25 14C8.66421 14 9 13.6642 9 13.25V9Z" fill="black"/>
</svg>

<svg xmlns="http://www.w3.org/2000/svg" viewBox="0 0 20 20">
  <path d="M9.754 20a8.5 8.5 0 0 1-3.417-.693 8.9 8.9 0 0 1-2.772-1.872 8.9 8.9 0 0 1-1.872-2.772A8.5 8.5 0 0 1 1 11.246q0-1.823.693-3.416a8.9 8.9 0 0 1 1.872-2.772 8.9 8.9 0 0 1 2.772-1.872 8.5 8.5 0 0 1 3.417-.693h.145l-.826-.827a.9.9 0 0 1-.28-.68q.012-.39.28-.682A1 1 0 0 1 9.766 0a.9.9 0 0 1 .693.28l2.504 2.505a.93.93 0 0 1 .292.68q0 .39-.292.681L10.46 6.651a.9.9 0 0 1-.693.28 1 1 0 0 1-.693-.305 1.03 1.03 0 0 1-.28-.68.9.9 0 0 1 .28-.681l.826-.827h-.145q-2.846 0-4.827 1.982Q2.945 8.4 2.945 11.246t1.982 4.827q1.982 1.982 4.827 1.982t4.826-1.982 1.982-4.827a.94.94 0 0 1 .28-.693.94.94 0 0 1 .693-.28q.413 0 .692.28a.94.94 0 0 1 .28.693 8.5 8.5 0 0 1-.693 3.417 8.9 8.9 0 0 1-1.872 2.772 8.9 8.9 0 0 1-2.772 1.872A8.5 8.5 0 0 1 9.754 20"/>
  <path d="M11.5 9.5v3h1v-3zM11 8a1 1 0 0 0-1 1v4a1 1 0 0 0 1 1h2a1 1 0 0 0 1-1V9a1 1 0 0 0-1-1zM9 9a1 1 0 0 0-1-1H6.75a.75.75 0 0 0 0 1.5h.75v3.75a.75.75 0 0 0 1.5 0z"/>
</svg>
